svgs/regular/ball-pile.svg

<svg xmlns="http://www.w3.org/2000/svg" viewBox="0 0 576 512"><!--! Font Awesome Pro 6.0.0-alpha3 by @fontawesome - https://fontawesome.com License - https://fontawesome.com/license (Commercial License) --><path d="M480 320c-10.41 0-20.3 2.081-29.68 5.174C468.5 307.7 480 283.3 480 256c0-53-43-96-96-96c-10.41 0-20.3 2.081-29.68 5.174C372.6 147.7 384 123.2 384 96c0-53-43-96-96-96S192 43 192 96c0 27.19 11.4 51.67 29.68 69.17C212.3 162.1 202.5 160 192 160C139 160 96 203 96 256c0 27.19 11.4 51.67 29.68 69.17C116.3 322.1 106.5 320 96 320c-53 0-96 43-96 96s43 96 96 96s96-43 96-96c0-27.19-11.4-51.67-29.68-69.17C171.7 349.9 181.5 352 192 352s20.3-2.081 29.68-5.174C203.4 364.3 192 388.8 192 416c0 53 43 96 96 96s96-43 96-96c0-27.19-11.4-51.67-29.68-69.17C363.7 349.9 373.5 352 384 352s20.3-2.081 29.68-5.174C395.4 364.3 384 388.8 384 416c0 53 43 96 96 96s96-43 96-96S533 320 480 320zM288 48c26.5 0 48 21.5 48 48S314.5 144 288 144S240 122.5 240 96S261.5 48 288 48zM317.7 325.2C308.3 322.1 298.5 320 288 320s-20.3 2.081-29.68 5.174C276.5 307.7 288 283.3 288 256S276.6 204.3 258.3 186.8C267.7 189.9 277.5 192 288 192s20.3-2.081 29.68-5.174C299.4 204.3 288 228.8 288 256S299.4 307.7 317.7 325.2zM96 464c-26.5 0-48-21.5-48-48s21.5-48 48-48s48 21.5 48 48S122.5 464 96 464zM192 304C165.5 304 144 282.5 144 256S165.5 208 192 208S240 229.5 240 256S218.5 304 192 304zM288 464c-26.5 0-48-21.5-48-48s21.5-48 48-48s48 21.5 48 48S314.5 464 288 464zM384 304c-26.5 0-48-21.5-48-48s21.5-48 48-48s48 21.5 48 48S410.5 304 384 304zM480 464c-26.5 0-48-21.5-48-48s21.5-48 48-48s48 21.5 48 48S506.5 464 480 464z"/></svg>

<svg xmlns="http://www.w3.org/2000/svg" viewBox="0 0 576 512"><!-- Font Awesome Pro 5.15.3 by @fontawesome - https://fontawesome.com License - https://fontawesome.com/license (Commercial License) --><path d="M480 320c-10.4 0-20.3 2.1-29.7 5.2 18.2-17.5 29.7-41.9 29.7-69.2 0-53-43-96-96-96-10.4 0-20.3 2.1-29.7 5.2 18.3-17.5 29.7-42 29.7-69.2 0-53-43-96-96-96s-96 43-96 96c0 27.2 11.4 51.7 29.7 69.2-9.4-3.1-19.2-5.2-29.7-5.2-53 0-96 43-96 96 0 27.2 11.4 51.7 29.7 69.2-9.4-3.1-19.2-5.2-29.7-5.2-53 0-96 43-96 96s43 96 96 96 96-43 96-96c0-27.2-11.4-51.7-29.7-69.2 9.4 3.1 19.2 5.2 29.7 5.2s20.3-2.1 29.7-5.2c-18.3 17.5-29.7 42-29.7 69.2 0 53 43 96 96 96s96-43 96-96c0-27.2-11.4-51.7-29.7-69.2 9.4 3.1 19.2 5.2 29.7 5.2s20.3-2.1 29.7-5.2c-18.3 17.5-29.7 42-29.7 69.2 0 53 43 96 96 96s96-43 96-96-43-96-96-96zM288 48c26.5 0 48 21.5 48 48s-21.5 48-48 48-48-21.5-48-48 21.5-48 48-48zm29.7 277.2c-9.4-3.1-19.2-5.2-29.7-5.2s-20.3 2.1-29.7 5.2c18.2-17.5 29.7-41.9 29.7-69.2s-11.4-51.7-29.7-69.2c9.4 3.1 19.2 5.2 29.7 5.2s20.3-2.1 29.7-5.2c-18.3 17.5-29.7 42-29.7 69.2s11.4 51.7 29.7 69.2zM96 464c-26.5 0-48-21.5-48-48s21.5-48 48-48 48 21.5 48 48-21.5 48-48 48zm96-160c-26.5 0-48-21.5-48-48s21.5-48 48-48 48 21.5 48 48-21.5 48-48 48zm96 160c-26.5 0-48-21.5-48-48s21.5-48 48-48 48 21.5 48 48-21.5 48-48 48zm96-160c-26.5 0-48-21.5-48-48s21.5-48 48-48 48 21.5 48 48-21.5 48-48 48zm96 160c-26.5 0-48-21.5-48-48s21.5-48 48-48 48 21.5 48 48-21.5 48-48 48z"/></svg>
